X: 1
T: Pease Strae
C: Neil Gow (1745)
N: Alternate tune to the trad Clean Pease Strae
R: reel
Z: 2006 John Chambers <jc@trillian.mit.edu>
M: C|
L: 1/16
K: D
|:"D"d4   f2d2 | "A"g2e2 "D"f2d2 | "A"e2A2 A2B2 | "C"=c4 A4 \
| "D"d4   f2d2 | "A"g2e2 "D"f2d2 | "A"e2g2 f2e2 | "D" d4 z4 :|
[|"D"a2f2 d2f2 | "A"agfe "D"d2f2 | "A"e2A2 A2B2 | "C"=c4 A4 \
| "D"d4   f2d2 |    g2e2    f2d2 | "A"e2g2 f2e2 | "D" d4 z4 ||
||"D"a2f2 d2f2 | "A"agfe "D"d2f2 | "A"e2A2 A2B2 | "C"=c4 A4 \
| "D"a2f2 "A"g2e2 | "Bm"f2d2 "Em"e2c2 | "A"A2g2 f2e2 | "D"d4 z4 |]
